X: 1
T: Paddy Cronin's  -  Mrs McRory
R: jig
M: 6/8
L: 1/8
K: Gmaj
g|dBG GFG  | BAB G2 d | dBG G (3B^cd | e2 A A2 g| dBG GFG |
BAB G (3B^cd | gfe dBA | BGG G2 : ||
f| gdg gdg | aea aea | ~g3 aga | bge e2 f |
gdg gdg | aea aea | gfe dBA | BGG G2 : ||

